X:1
T:Breve Ele Volta
T:Breve Ele Volta John W. Peterson
C:John W. Peterson
%%score [ ( 1 2 ) ( 3 4 ) ] { ( 5 6 7 11 ) | ( 8 9 10 ) }
L:1/8
Q:3/8=74
M:6/8
K:Ab
V:1 treble nm="S A"
V:2 treble 
V:3 bass nm="T B"
V:4 bass 
V:5 treble nm="Piano" snm="Pno"
V:6 treble 
V:7 treble 
V:11 treble 
V:8 bass 
V:9 bass 
V:10 bass 
V:1
 z6 | z6 | z6 | z6 | AGA BAE | F=EF GFC | DCD EFG | ABc B3 | AGA BAE | F=EF GFC | DCD EFG | %11
w: ||||Bre- ve~E le vol- ta sim|bre- ve~E ~le vol- ta é|Su- a pro- mes- sa~e la|vai se cum- prir|ve- lhos e jo- vens cri-|an- ças- mu- lhe- res é|es- ta~a men- sa- gem que|
[M:9/8] ABc B3 B2 A |[M:6/8] A3- A3- | A3 z z2 | [Ac]3 [Ad]2 [AB] | [Ac]2 [Ac]- [Ac]3 | z6 | z6 | %18
w: to- dos pre- ci- sam ou-|vir *||bre- ve~E le|vol- ta *|||
[K:E] [=Ge]3 [=A=f]2 [=F=d] | [=Ge]2 [Ge-] [Ge]3 | z6 | z6 |[K:Ab] [Ge]3 [F=d]2 [Ge] | %23
w: bre- ve~E ~le|vol- ta *|||Bre- ve~E le|
 [Af]3 [Ge]3 | [Ge]3 [F=d]2 [Ge] | [Af]3 [Ge]3 | [Ge][F=d][Ge] [Af][Ge][Fd] | %27
w: vol- ta|Bre- ve~E ~le|vol- ta|Bre- ve~E le vol~- ta sim|
 [Ge][F=d][Ge] [Af][Ge][Fd] | [Ge][F=d][Ge] [Af][Ge][cf] | [_cg]3- [cg]3 | [Ge]3 [Ge]2 [Ge] | %31
w: bre- ve~E le vol- ta sim|Je- sus vi- rá ou- tra|vez *|Pa- ra~es- te|
 [Ac]3 [Ac]2 [Ac] | [A=d]3 [Ad]2 [Ad] | [=DB]3 [DB]3 | [Ec]3 [Ec]2 [Ec] | [FA]3 [FA]2 [FA] | %36
w: mun- do em|cri- ses e|guer- ras|Paz e jus-|ti- ça~E le~|
 [FB]3 [FB]2 [FA] | [EG]3- [EG]3- | [EG]3- [EG]3 | F3 G2 G | A3 =A3 | B3 c2 c | [F_d]3 [F=d]3 | %43
w: vai res- tau-|rar *||Seu bra- ço|for- te|vai do- mi-|nar e|
 [_Ge]3 [Bf]2 [Bf] | _g3 gf[Ge] | [EAe]2 [EAe] [EAe][EAe][EAe] | [FBe]3- [FBe]3- | [FBe]3- [FBe]3 | %48
w: um no- vo|di- a * Je-|sus ao mun- do vai|dar *||
 z6 | AGA BAE | F=EF GFC | DCD EFG | ABc B3 | AGA BAE | F=EF GFC | DCD EFG |[M:9/8] ABc B3 B2 A | %57
w: |Bre- ve~E le vol- ta sim|bre- ve~E ~le vol- ta é|Su- a pro- mes- sa~e la|vai se cum- prir|ve- lhos e jo- vens cri-|an- ças- mu- lhe- res é|es- ta~a men- sa- gem que|to- dos pre- ci- sam ou-|
[M:6/8] A3- A3- | A3- A3 | D3 E2 E | F3 G3 | [EA]3 [Ge]2 [Fd] | [Ac]3- [Ac]3 | %63
w: vir *||Bre- ve~E- le|vol- ta|Bre- ve Je-|sus *|
 ((([AB]3 [GB]2))) [EB] | [EA]3- [EA]2 z | A3- A3- | A3- A3- | A3- A3- | A3- A3 | %69
w: vol- ta- rá||||||
 ([DF]2 [DF]2 [DF]2) | ([FA]2 [FA]2 [FA]2) | [Ace]3- [Ace]3- | [Ace]3- [Ace]3- | %73
w: Je- sus vi-|rá ou- tra|vez *||
 [Acea]3- [Acea]3- | [Acea]3 z z2 |] %75
w: ||
V:2
 x6 | x6 | x6 | x6 | x6 | x6 | x6 | x6 | x6 | x6 | x6 |[M:9/8] x9 |[M:6/8] x6 | x6 | x6 | x6 | x6 | %17
w: |||||||||||||||||
 x6 |[K:E] x6 | x6 | x6 | x6 |[K:Ab] x6 | x6 | x6 | x6 | x6 | x6 | x6 | x6 | x6 | x6 | x6 | x6 | %34
w: |||||||||||||||||
 x6 | x6 | x6 | x6 | x6 | F3 =E2 E | F3 F3 | F3 F2 F | x6 | x6 | B3 B3 | x6 | x6 | x6 | x6 | x6 | %50
w: ||||||||||||||||
 x6 | x6 | x6 | x6 | x6 | x6 |[M:9/8] x9 |[M:6/8] x6 | x6 | x6 | x6 | x6 | x6 | x6 | x6 | %65
w: |||||||||||||||
 (D3 D)DD | E3- E3 | D3- DDD | E3- E3 | x6 | x6 | x6 | x6 | x6 | x6 |] %75
w: Bre- * ve~ vi-|rá *|Bre- * ve vi-|rá *|||||||
V:3
 z6 | z6 | z6 | z6 | A,G,A, B,A,E, | F,=E,F, G,F,C, | D,C,D, E,F,G, | A,B,C B,3 | A,G,A, B,A,E, | %9
w: |||||||||
 F,=E,F, G,F,C, | D,C,D, E,F,G, |[M:9/8] A,B,C B,3 B,2 A, |[M:6/8] A,3- A,3- | A,3 z z2 | %14
w: |||||
 [A,E]3 [A,F]2 [A,D] | [A,E]2 [A,-E] [A,E]3 | z6 | z6 |[K:E] =C3 C2 C | =C2 C- C3 | z6 | z6 | %22
w: ||||||||
[K:Ab] B,3 B,2 B, | B,3 B,3 | B,3 B,2 B, | B,3 B,3 | B,3 B,2 B, | B,3 B,3 | B,B,B, [B,=D][B,E]F | %29
w: ||||Bre- ve~E le|vol- ta||
 [=G,=D]3- [G,D]3 | C3 C2 C | E3 E2 E | C3 C2 C | =D3 D3 | E3 E2 E | C3 C2 C | E3 B,2 B, | %37
w: ||||||||
 B,3- ((B,3 | (C3)) D3) | [A,C]3 [G,C]2 [G,C] | [F,C]3 [E,C]3 | [_D,B,]3 [C,=A,]2 [C,A,] | %42
w: |||||
 [B,,B,]3 [A,B,]3 | [_G,B,]3 [F,=D]2 [F,D] | [E,E]3 [_D,E][B,F][D,B,_G] | %45
w: |||
 [C,A,A]2 [C,A,A] [_C,_G,E][C,G,E][C,G,E] | [B,,A,D]3- [B,,A,D]3- | [B,,A,D]3- [B,,A,D]3 | z6 | %49
w: ||||
 A,G,A, B,A,E, | F,=E,F, G,F,C, | D,C,D, E,F,G, | A,B,C B,3 | A,G,A, B,A,E, | F,=E,F, G,F,C, | %55
w: ||||||
 D,C,D, E,F,G, |[M:9/8] A,B,C B,3 B,2 A, |[M:6/8] A,3- A,3- | A,3- A,3 | D,3 E,2 E, | F,3 G,3 | %61
w: ||||||
 [C,A,]3 [D,C]2 [D,B,] | [E,E]3- [E,E]3 | [E,D]3 [E,D]2 [E,D] | [A,C]3- [A,-C]3 | %65
w: ||||
 ([A,B,]3 B,)B,B, | C3- C3 | B,3- B,B,B, | C3- C3 | [A,B,]2 [A,B,]2 [A,B,]2 | %70
w: |||||
 [A,D]2 [A,D]2 [A,D]2 | [A,CE]3- [A,CE]3- | [A,CE]3- [A,CE]3- | [A,CE]3- [A,CE]3- | [A,CE]3 z z2 |] %75
w: |||||
V:4
 x6 | x6 | x6 | x6 | x6 | x6 | x6 | x6 | x6 | x6 | x6 |[M:9/8] x9 |[M:6/8] x6 | x6 | x6 | x6 | x6 | %17
 x6 |[K:E] =C3 C2 C | =C2 C C3 | x6 | x6 |[K:Ab] B,3 B,2 B, | B,3 B,3 | B,3 B,2 B, | B,3 B,3 | %26
 B,3 B,2 B, | B,3 B,3 | B,B,B, B,B,A, | x6 | C3 C2 C | A,3 A,2 A, | F,3 F,2 F, | G,3 G,3 | %34
 A,3 A,2 A, | F,3 F,2 A, | B,3 B,,2 =D, | (E,3 (=D,3) | (C,3) B,,3) | x6 | x6 | x6 | x6 | x6 | x6 | %45
 x6 | x6 | x6 | x6 | x6 | x6 | x6 | x6 | x6 | x6 | x6 |[M:9/8] x9 |[M:6/8] x6 | x6 | x6 | %60
 F,3 (E,2 D,) | x6 | x6 | x6 | x6 | A,3- A,3- | A,3- A,3- | A,3- A,3- | A,3- A,3 | x6 | x6 | x6 | %72
 x6 | x6 | x6 |] %75
V:5
 cBc efg | [Acfa]2 [FAcf] [FAcf]AG | [F,A,DF]3 [G,CEG]3 | [A,DFA]3 [DFAB]/[DFAB]/[DFAB][DFAB] | %4
 z GA z AE | z =EF z FC | z CD EFG | ABc [DFAB]/[DFAB]/[DFAB][DFAB] | z GA z AE | z =EF z FC | %10
 z CD EFG |[M:9/8] [DFA]3 [DFAB]/[DFAB]/[DFAB][DFAB] z2 z |[M:6/8] z [CEA]>[CEA] z [CFA][CFA] | %13
 z [DFAB]>[DFAB] z [DFAB]2 | [CEAc]3 d2 B | [CEAc]2 [CEAc]- [CEAc][CEA]E | [E,A,C]3 A,2 B, | %17
 C2 C- CC/E/A/c/ |[K:E] [=E=G=c=e]3 [=F=Ac=f]3 | [=E=G=c=e]2 [EGce] [EGce][EGc]!tenuto![=CEG] | %20
 =E3 =F2 =D | =E2 E z =GB |[K:Ab] [EGBe]3 [=D=FB=d]2 [EGBe] | f3 e3 | [EGBe]3 [=D=FB=d]2 [EGBe] | %25
 f3 e3 | [GBe][FB^d][GBe] [ABf][GBe][FBd] | [GBe][FB^d][GBe] [ABf][GBe][FBd] | %28
 [GBe][FB^d][GBe] [ABf][GBe][FBd] | [G=B=dg]3- [GBdg]3 | [EGce]>[EGce][EGce] z [EGce]2 | %31
 [CEAc]>[CEAc][CEAc] z [CEAc]2 | [A,CFA]>[A,CFA][A,CFA] z [A,CFA]2 | %33
 [B,=DGB]>[B,DGB][B,DGB] z [B,DGB]2 | [CEAc]>[CEAc][CEAc] z [CEAc]2 | %35
 [A,CFA]>[A,CFA][A,CFA] z [A,CFA]2 | B>BB z BA | z [B,EG]G, z [B,=DG]G, | z [CEG]G, [DEG]G,[DEG] | %39
 z [A,CF]>[A,CF] z [G,C=EG][G,CEG] | z [A,CFA]2 z [=A,CF=A]2 | z [B,_DFB]>[B,DFB] z [CF=Ac][CFAc] | %42
 z [_DFB_d]2 z [=DFB=d]2 | z [E_GBe]>[EGBe] z [FB=df][FBdf] | z [_GBe_g]>[GBeg] z [FBf][EGBe] | %45
 [Ace]E[Ace] [_GAe]E[GAe] | [FABe]>[FABe][F-ABe-] [FABe] [FABe]2 | %47
 [A,DE]>[A,DE][A,-DE-] [A,DE] [A,DE]2 | !tenuto![G,B,E]>[G,-B,-E-e] [G,B,Ee]3 z | z GA z AE | %50
 z =EF z FC | z CD EFG | ABc [DFAB]/[DFAB]/[DFAB][DFAB] | z GA z AE | z =EF z FC | z CD EFG | %56
[M:9/8] [DFA]3 [DFAB]/[DFAB]/[DFAB][DFAB] z2 z |[M:6/8] z [CFA]>[CFA] z [Acf][FAc] | %58
 z [FAc][CFA] z [CFA][A,CF] | z [F,B,D]>[F,B,D] z [A,CE][A,CE] | z [F,A,DF]2 z [G,B,EG]2 | %61
 [EA]C/E/A/c/ [Gce]2 [FBd] | [EAc]2 C EAc | [DFAB]2 [DFAB] z BA | %64
 [CEA]2 (([EAce] [EAce]))[EAc][CEA] | [B,DA]2 (([B,DFA] [B,DFA]))[B,DA][B,DA] | %66
 (([CEA]2 [EAce])) [EAce][EAc][CEA] | (([B,DA]2 (([B,DFA])) [B,DFA]))[B,DA][B,DA] | %68
 (([CEA]2 [EAce])) [EAce][EAc][CEA] | ([B,DA]2 [B,DA]2 [B,DA]2) | ([DFA]2 [DFA]2 [DFA]2) | %71
 [CEAc]3 [A,EAceac']3 | !>![C,E,A,C]2 [C,E,A,C] [C,E,A,C] !>![C,E,A,C]2 | !>!A,!>!A,A, A,A,A, | %74
 !>!A,3 z z2 |] %75
V:6
 A3 G3 | x6 | x6 | x6 | x6 | x6 | x6 | x6 | x6 | x6 | x6 |[M:9/8] x9 |[M:6/8] x6 | x6 | x3 [DFA]3 | %15
 x6 | x3 D2 x | A,2 A, A, C2 |[K:E] x6 | x6 | =C3 C3 | =C2 C z E=G |[K:Ab] x6 | B2 B B3 | x6 | %25
 B2 B B3 | x6 | x6 | x6 | x6 | x6 | x6 | x6 | x6 | x6 | x6 | [B,EF]>[B,EF][B,EF] [B,=DF]2 x | x6 | %38
 x6 | x6 | x6 | x6 | x6 | x6 | x6 | x6 | x6 | z z z ABd | e6 | z6 | x6 | x6 | x6 | x6 | x6 | x6 | %56
[M:9/8] x9 |[M:6/8] x6 | x6 | x6 | x6 | x6 | x6 | z2 z2 [DG]2 | x6 | x6 | x6 | x6 | x6 | x6 | x6 | %71
 x6 | x6 | x6 | x6 |] %75
V:7
 CB,[CE] EFG | x6 | x6 | x6 | x6 | x6 | x6 | x6 | x6 | x6 | x6 |[M:9/8] x9 |[M:6/8] x6 | x6 | x6 | %15
 x6 | x6 | x6 |[K:E] x6 | x6 | =G,3 =A,2 =F, | =G, z G, z =B,E |[K:Ab] x6 | A3 G3 | x6 | A3 G3 | %26
 x6 | x6 | x6 | x6 | x6 | x6 | x6 | x6 | x6 | x6 | x6 | x6 | x6 | x6 | x6 | x6 | x6 | x6 | x6 | %45
 x6 | x6 | x6 | x6 | x6 | x6 | x6 | x6 | x6 | x6 | x6 |[M:9/8] x9 |[M:6/8] x6 | x6 | x6 | x6 | x6 | %62
 x6 | x6 | x6 | x6 | x6 | x6 | x6 | x6 | x6 | x6 | x6 | x6 | x6 |] %75
V:8
 [A,,A,]3 [G,,G,]3 | [F,,F,]3 [E,,E,]3 | D,2 D, C,2 C, | [B,,,B,,]2 [E,,,E,,] [E,,E,]3 | %4
 [A,,A,]3 [G,,G,]3 | [F,,F,]3 [E,,E,]3 | [D,,D,]3 [C,,C,]3 | [B,,,B,,]3 [E,,E,]3 | %8
 [A,,A,]3 [G,,G,]3 | [F,,F,]3 [E,,E,]3 | [D,,D,]3 [C,,C,]3 |[M:9/8] [B,,,B,,]3 [E,,E,]3 [E,,E,]3 | %12
[M:6/8] [A,,A,]3 [F,,F,]3 | [D,,D,]3 [B,,,B,,]2 [E,,E,] | [E,A,]3 F,2 [F,B,] | %15
 [A,,E,A,]2 [A,,E,A,]- [A,,E,A,]3 | [A,,,A,,]2 z F,2 D, | [A,,E,]2 [A,,E,] [A,,E,]3 | %18
[K:E] [=G,=C]3 A,2 [A,=D] | [=C,=G,=C]2 [C,G,]- [C,G,]3 | =C,2 C, C,3 | =C,3 B,,3 | %22
[K:Ab] z2 G, [F,B,]2 [G,B,] | B,2 B, B,3 | [G,B,]2 [G,B,] [F,B,]2 [G,B,] | [A,B,]2 B, [G,B,] z2 | %26
 [G,B,E][F,B,^D][G,B,E] [A,B,F][G,B,E][F,B,D] | [G,B,E][F,B,^D][G,B,E] [A,B,F][G,B,E][F,B,D] | %28
 [G,B,E][F,B,^D][G,B,E] [A,B,F][G,B,E] z | [G,,G,]2 [=D,,=D,] [G,,G,][=B,,=B,][D,=D] | %30
 [C,C]2 [G,,G,] [C,C]2 [B,,B,] | [A,,A,]2 [E,,E,] [A,,A,]2 [A,,A,] | %32
 [F,,F,]2 [C,,C,] [F,,F,]2 [F,,F,] | [G,,G,]2 [=D,,=D,] [G,,G,]2 [G,,G,] | %34
 [A,,A,]2 [E,,E,] [A,,A,]2 [A,,A,] | [F,,F,]2 [C,,C,] [F,,F,]2 [F,,F,] | %36
 [B,,,B,,]2 [B,,,B,,] [D,,B,,]3 | [E,,E,]3 [=D,,=D,]3 | [C,,C,]3 [B,,,B,,]3 | %39
 [A,,,A,,]3 [G,,,G,,]3 | [F,,,F,,]2 [F,,F,] [E,,E,]2 [E,,E,] | [_D,,_D,]3 [C,,C,]3 | %42
 [B,,,B,,]2 [B,,B,] [A,,A,]2 [A,,A,] | [_G,,_G,]3 [F,,F,]3 | [E,,E,]3 [_D,,_D,]3 | %45
 [C,,C,]3 [_C,,_C,]3 | [B,,,B,,]3 [B,,B,]2 [B,,,B,,] | [E,,E,]3 [E,,E,]2 [B,,,B,,] | %48
 [E,,E,]3 [E,,E,][B,,,B,,][E,,E,] | [A,,A,]3 [G,,G,]3 | [F,,F,]3 [E,,E,]3 | [D,,D,]3 [C,,C,]3 | %52
 [B,,,B,,]3 [E,,E,]3 | [A,,A,]3 [G,,G,]3 | [F,,F,]3 [E,,E,]3 | [D,,D,]3 [C,,C,]3 | %56
[M:9/8] [B,,,B,,]3 [E,,E,]3 [E,,E,]3 |[M:6/8] [F,,F,]3 [F,,,F,,]3 | [A,,,A,,]3 [C,,C,]3 | %59
 [D,,D,]3 [C,,C,]3 | [B,,,B,,]2 [B,,,B,,] [E,,E,]2 [D,,D,] | C,3 D, D,2 | E,2 C, E,A,C | E,3 E,3 | %64
 A,3 A,,3 | [A,,F,]2 (([A,,F,] [A,,F,]))[A,,F,][A,,F,] | [A,,A,]3 [F,,,A,,]3 | %67
 [A,,F,]2 (([A,,F,] [A,,F,]))[A,,F,][A,,F,] | [A,,A,]3 [F,,,A,,]3 | ([A,,F,]2 [A,,F,]2 [A,,F,]2) | %70
 ([A,,F,]2 [A,,F,]2 [A,,F,]2) | [A,,E,A,]3- [A,,E,A,]3 | %72
 !>![A,,,A,,]2 !>![A,,,A,,] !>![A,,,A,,] !>![A,,,A,,]2 | %73
 !>![A,,,A,,]2 ((!>![A,,,A,,] [A,,,A,,]2)) [A,,,A,,] | !>![A,,,A,,]3 z z2 |] %75
V:9
 x6 | x6 | D,,3 C,,3 | x6 | x6 | x6 | x6 | x6 | x6 | x6 | x6 |[M:9/8] x9 |[M:6/8] x6 | x6 | %14
 A,,3 A,,3 | x6 | x2 A,, A,,3 | x6 |[K:E] =C,3 C,3 | x6 | =C,,3- C,,3 | =C,,3 B,,,3 | %22
[K:Ab] (((B,,3 B,,3-))) | [B,,A,]3 G,3 | x6 | x6 | x6 | x6 | x6 | x6 | x6 | x6 | x6 | x6 | x6 | %35
 x6 | x6 | x6 | x6 | x6 | x6 | x6 | x6 | x6 | x6 | x6 | x6 | z z z A,B,D | E6 | x6 | x6 | x6 | x6 | %53
 x6 | x6 | x6 |[M:9/8] x9 |[M:6/8] x6 | x6 | x6 | x6 | C,,3 D,,3 | E,,3 E,,3 | E,,3 E,,3 | %64
 A,,3 A,,,3 | x6 | x6 | x6 | x6 | x6 | x6 | x6 | x6 | x6 | x6 |] %75
V:10
 x6 | x6 | x6 | x6 | x6 | x6 | x6 | x6 | x6 | x6 | x6 |[M:9/8] x9 |[M:6/8] x6 | x6 | x6 | x6 | x6 | %17
 x6 |[K:E] x6 | x6 | x6 | x6 |[K:Ab] B,,,3 B,,,3- | B,,,3 z B,,[B,,,B,,]- | %24
 [B,,,B,,]3 [B,,,B,,]3- | [B,,,B,,]3 B,,[B,,,B,,] x | [B,,,B,,]3- [B,,,B,,]3- | %27
 [B,,,B,,]3- [B,,,B,,]3- | [B,,,B,,]3- [B,,,B,,]2 [A,,A,] | x6 | x6 | x6 | x6 | x6 | x6 | x6 | x6 | %37
 x6 | x6 | x6 | x6 | x6 | x6 | x6 | x6 | x6 | x6 | x6 | x6 | x6 | x6 | x6 | x6 | x6 | x6 | x6 | %56
[M:9/8] x9 |[M:6/8] x6 | x6 | x6 | x6 | x6 | x6 | x6 | x6 | x6 | x6 | x6 | x6 | x6 | x6 | x6 | x6 | %73
 x6 | x6 |] %75
V:11
 x6 | x6 | x6 | x6 | x6 | x6 | x6 | x6 | x6 | x6 | x6 |[M:9/8] x9 |[M:6/8] x6 | x6 | x6 | x6 | x6 | %17
 x6 |[K:E] x6 | x6 | x6 | x6 |[K:Ab] x6 | F3 E3 | x6 | F3 E3 | x6 | x6 | x6 | x6 | x6 | x6 | x6 | %33
 x6 | x6 | x6 | x6 | x6 | x6 | x6 | x6 | x6 | x6 | x6 | x6 | x6 | x6 | x6 | x6 | x6 | x6 | x6 | %52
 x6 | x6 | x6 | x6 |[M:9/8] x9 |[M:6/8] x6 | x6 | x6 | x6 | x6 | x6 | x6 | x6 | x6 | x6 | x6 | x6 | %69
 x6 | x6 | x6 | x6 | x6 | x6 |] %75

